X:163
T:O'munin's Favlisiny
Z: id:dc-ocarolan-11
M: id:dc-reel-330
M:C
L:1/8
K:A Major
dB|Acdf ecde|fece feec|dfe^c dfed|cded ^cded|!
dgg2 dggd|egfg ecce|d2ef g2fg|!
afgf gfeg|fedf agfd|egg2 agg2|afa^f feec|[1 dB(Bdef g4|]!